imgs/01-07-button1.svg

<svg xmlns="http://www.w3.org/2000/svg" width="149.995" height="60" viewBox="2.011 0 149.995 60" enable-background="new 2.011 0 149.995 60"><path fill="#036BA7" d="M16.303 5h135.703l-14.293 52h-135.702z"/><path fill="#1185C7" d="M7.233 37.999s-6.408-5.856 139.552-14.007c1.722-10.036 5.221-18.992 5.221-18.992h-135.703l-9.07 32.999z"/><path fill="#fff" d="M137.713 57h-135.702l14.292-52h135.703l-14.293 52zm-.761-1l13.741-50h-133.628l-13.743 50h133.63"/><path fill="#fff" d="M118.523 26.438l-.729 4.126h5.626l.729-4.126h-5.626zm2.89-4.688h-7.688c-1.039.937-2.105 1.843-3.197 2.718h7.875l3.01-2.718zm-5.772 8.812l.729-4.125h-5.719l-.729 4.125h5.719zm9.605 1.876h-15.656l-.562 3.188c-.283 1.252.355 1.876 1.921 1.876h10.687c1.615.063 2.59-.5 2.924-1.688.021-.123.135-.403.336-.842.258-.75.455-1.344.596-1.783.758.313 1.406.533 1.945.656-.031.188-.106.439-.226.752-.313 1.062-.603 1.813-.864 2.25-.685 1.747-2.24 2.592-4.666 2.529h-11.719c-2.574.062-3.626-1.062-3.154-3.374l1.784-10.125-.96.656c-.299-.436-.71-.937-1.234-1.5 3.386-2.186 6.19-4.623 8.414-7.312l2.387.28c-.158.188-.432.501-.82.937-.316.375-.59.689-.82.938h9l-.315 1.781-3.119 2.812h5.53l-1.409 7.969zm-31.905 3.468l-1.825 1.312c-.052-.062-.098-.154-.137-.283-.833-1.312-1.535-2.279-2.113-2.904l1.621-1.219c.884 1 1.705 2.032 2.454 3.094zm4.445-5.53l.347-1.969h2.062l-.348 1.969h3l-.33 1.874h-3.002l-.857 4.875c-.27 1.875-1.402 2.812-3.402 2.812-1.012.062-2.049.092-3.111.092l-.031-1.404c-.01-.312-.027-.562-.057-.749.613.06 1.516.093 2.703.093 1.125 0 1.764-.438 1.918-1.312l.777-4.406h-8.625l.331-1.874h8.625zm-8.339-5.346h-2.156l-.811 4.594 2.271-.656c-.155.876-.219 1.595-.192 2.157l-2.461.656-1.484 8.438h-2.064l1.39-7.873-4.06 1.217.114-2.25 4.322-1.125.91-5.157h-1.966c-.107.251-.262.596-.464 1.032-.364 1.001-.685 1.75-.96 2.25-.165-.124-.449-.281-.855-.469-.237-.06-.414-.124-.527-.188 1.027-1.938 1.949-4.5 2.762-7.688l1.561.188c-.116.312-.262.783-.436 1.407-.246.687-.428 1.187-.545 1.5h1.781l.908-5.157h2.063l-.911 5.157h2.156l-.346 1.967zm13.834-2.437h-4.969l-.545 3.094h5.906l-.331 1.876h-13.873l.331-1.876h5.812l.547-3.094h-4.875l.33-1.874h4.875l.514-2.906h2.155l-.513 2.906h4.969l-.333 1.874zm-29.807 14.438l.958-5.438h-4.875l-.958 5.438h4.875zm3.259-7.312l-1.835 10.406h-1.969l.247-1.407h-4.876l-.247 1.407h-2.063l1.837-10.406h8.906zm-18.799 1.875l-.96 5.438h4.782l.958-5.438h-4.78zm5.338 8.531h-2.062l.247-1.407h-4.78l-.248 1.407h-2.062l1.835-10.406h8.905l-1.835 10.406zm-1.001-19.313l-.777 4.406h11.626l.777-4.406h-11.626zm-3.374 6.375l1.472-8.344h16.125l-1.472 8.344h-16.125zm-26.231 0h5.531c-.276-.562-.695-1.373-1.257-2.438-.299-.436-.495-.749-.584-.937l1.979-1.125c.893 1.313 1.571 2.438 2.031 3.375l-1.887 1.125h5.344c1.422-1.687 2.55-3.125 3.386-4.312l1.992.937c-.401.501-1.064 1.25-1.99 2.25-.401.501-.718.877-.95 1.125h6.094l-.348 1.969h-17.439l-.263 1.5c-.56 3.876-2.027 7.062-4.405 9.562-.548-.438-1.123-.906-1.722-1.406 2.08-1.875 3.378-4.625 3.892-8.248l.596-3.377zm21.109-4.875h-21.937l.346-1.969h10.406c-.018-.248-.077-.624-.175-1.125-.039-.5-.096-.873-.178-1.125l2.488-.281c.068.313.135.813.203 1.5.047.438.082.782.099 1.03h9.095l-.347 1.97z"/><path d="M15 5" fill="none"/></svg>

<?xml version="1.0" encoding="utf-8"?>
<!-- Generator: Adobe Illustrator 16.0.0, SVG Export Plug-In . SVG Version: 6.00 Build 0)  -->
<!DOCTYPE svg PUBLIC "-//W3C//DTD SVG 1.1//EN" "http://www.w3.org/Graphics/SVG/1.1/DTD/svg11.dtd">
<svg version="1.1" id="图层_1" xmlns="http://www.w3.org/2000/svg" xmlns:xlink="http://www.w3.org/1999/xlink" x="0px" y="0px"
	 width="149.995px" height="60px" viewBox="2.011 0 149.995 60" enable-background="new 2.011 0 149.995 60" xml:space="preserve">
<polygon fill="#036BA7" points="16.303,5 152.006,5 137.713,57 2.011,57 "/>
<path fill="#1185C7" d="M7.233,37.999c0,0-6.408-5.856,139.552-14.007C148.507,13.956,152.006,5,152.006,5H16.303L7.233,37.999z"/>
<path fill="#FFFFFF" d="M137.713,57H2.011L16.303,5h135.703L137.713,57z M136.952,56l13.741-50H17.065L3.322,56H136.952"/>
<path fill="#FFFFFF" d="M118.523,26.438l-0.729,4.126h5.626l0.729-4.126H118.523z M121.413,21.75h-7.688
	c-1.039,0.937-2.105,1.843-3.197,2.718h7.875L121.413,21.75z M115.641,30.562l0.729-4.125h-5.719l-0.729,4.125H115.641z
	 M125.246,32.438H109.59l-0.562,3.188c-0.283,1.252,0.355,1.876,1.921,1.876h10.687c1.615,0.063,2.59-0.5,2.924-1.688
	c0.021-0.123,0.135-0.403,0.336-0.842c0.258-0.75,0.455-1.344,0.596-1.783c0.758,0.313,1.406,0.533,1.945,0.656
	c-0.031,0.188-0.106,0.439-0.226,0.752c-0.313,1.062-0.603,1.813-0.864,2.25c-0.685,1.747-2.24,2.592-4.666,2.529h-11.719
	c-2.574,0.062-3.626-1.062-3.154-3.374l1.784-10.125l-0.96,0.656c-0.299-0.436-0.71-0.937-1.234-1.5
	c3.386-2.186,6.19-4.623,8.414-7.312l2.387,0.28c-0.158,0.188-0.432,0.501-0.82,0.937c-0.316,0.375-0.59,0.689-0.82,0.938h9
	l-0.315,1.781l-3.119,2.812h5.53L125.246,32.438z M93.341,35.906l-1.825,1.312c-0.052-0.062-0.098-0.154-0.137-0.283
	c-0.833-1.312-1.535-2.279-2.113-2.904l1.621-1.219C91.771,33.812,92.592,34.844,93.341,35.906z M97.786,30.376l0.347-1.969h2.062
	l-0.348,1.969h3l-0.33,1.874h-3.002l-0.857,4.875c-0.27,1.875-1.402,2.812-3.402,2.812c-1.012,0.062-2.049,0.092-3.111,0.092
	c-0.006-0.312-0.017-0.78-0.031-1.404c-0.01-0.312-0.027-0.562-0.057-0.749c0.613,0.06,1.516,0.093,2.703,0.093
	c1.125,0,1.764-0.438,1.918-1.312l0.777-4.406H88.83l0.331-1.874H97.786z M89.447,25.03h-2.156l-0.811,4.594l2.271-0.656
	c-0.155,0.876-0.219,1.595-0.192,2.157l-2.461,0.656l-1.484,8.438H82.55l1.39-7.873l-4.06,1.217l0.114-2.25l4.322-1.125l0.91-5.157
	H83.26c-0.107,0.251-0.262,0.596-0.464,1.032c-0.364,1.001-0.685,1.75-0.96,2.25c-0.165-0.124-0.449-0.281-0.855-0.469
	c-0.237-0.06-0.414-0.124-0.527-0.188c1.027-1.938,1.949-4.5,2.762-7.688l1.561,0.188c-0.116,0.312-0.262,0.783-0.436,1.407
	c-0.246,0.687-0.428,1.187-0.545,1.5h1.781l0.908-5.157h2.063l-0.911,5.157h2.156L89.447,25.03z M103.281,22.593h-4.969
	l-0.545,3.094h5.906l-0.331,1.876H89.469l0.331-1.876h5.812l0.547-3.094h-4.875l0.33-1.874h4.875l0.514-2.906h2.155l-0.513,2.906
	h4.969L103.281,22.593z M73.474,37.031l0.958-5.438h-4.875l-0.958,5.438H73.474z M76.733,29.719l-1.835,10.406h-1.969l0.247-1.407
	H68.3l-0.247,1.407H65.99l1.837-10.406H76.733z M57.934,31.594l-0.96,5.438h4.782l0.958-5.438H57.934z M63.272,40.125H61.21
	l0.247-1.407h-4.78l-0.248,1.407h-2.062l1.835-10.406h8.905L63.272,40.125z M62.271,20.812l-0.777,4.406H73.12l0.777-4.406H62.271z
	 M58.897,27.187l1.472-8.344h16.125l-1.472,8.344H58.897z M32.666,27.187h5.531c-0.276-0.562-0.695-1.373-1.257-2.438
	c-0.299-0.436-0.495-0.749-0.584-0.937l1.979-1.125c0.893,1.313,1.571,2.438,2.031,3.375l-1.887,1.125h5.344
	c1.422-1.687,2.55-3.125,3.386-4.312l1.992,0.937c-0.401,0.501-1.064,1.25-1.99,2.25c-0.401,0.501-0.718,0.877-0.95,1.125h6.094
	l-0.348,1.969H34.568l-0.263,1.5c-0.56,3.876-2.027,7.062-4.405,9.562c-0.548-0.438-1.123-0.906-1.722-1.406
	c2.08-1.875,3.378-4.625,3.892-8.248L32.666,27.187z M53.775,22.312H31.838l0.346-1.969H42.59c-0.018-0.248-0.077-0.624-0.175-1.125
	c-0.039-0.5-0.096-0.873-0.178-1.125l2.488-0.281c0.068,0.313,0.135,0.813,0.203,1.5c0.047,0.438,0.082,0.782,0.099,1.03h9.095
	L53.775,22.312z"/>
<path fill="none" d="M15,5"/>
</svg>
